assets/img/icon/social-networks/youtube.svg

<svg fill="none" height="12" viewBox="0 0 18 12" width="18" xmlns="http://www.w3.org/2000/svg"><path d="m17.4688 1.90625c-.1876-.75-.7813-1.34375-1.5-1.53125-1.3438-.375-6.6563-.375-6.6563-.375s-5.34375 0-6.6875.375c-.71875.1875-1.3125.78125-1.5 1.53125-.375 1.3125-.375 4.125-.375 4.125s0 2.78125.375 4.12495c.1875.75.78125 1.3126 1.5 1.5 1.34375.3438 6.6875.3438 6.6875.3438s5.3125 0 6.6563-.3438c.7187-.1874 1.3124-.75 1.5-1.5.375-1.3437.375-4.12495.375-4.12495s0-2.8125-.375-4.125zm-9.9063 6.65625v-5.0625l4.4375 2.53125z" fill="#353132" fill-opacity=".6"/></svg>

<svg width="18" height="12" viewBox="0 0 18 12" fill="none" xmlns="http://www.w3.org/2000/svg">
<path d="M17.4688 1.90625C17.2812 1.15625 16.6875 0.5625 15.9688 0.375C14.625 0 9.3125 0 9.3125 0C9.3125 0 3.96875 0 2.625 0.375C1.90625 0.5625 1.3125 1.15625 1.125 1.90625C0.75 3.21875 0.75 6.03125 0.75 6.03125C0.75 6.03125 0.75 8.8125 1.125 10.1562C1.3125 10.9062 1.90625 11.4688 2.625 11.6562C3.96875 12 9.3125 12 9.3125 12C9.3125 12 14.625 12 15.9688 11.6562C16.6875 11.4688 17.2812 10.9062 17.4688 10.1562C17.8438 8.8125 17.8438 6.03125 17.8438 6.03125C17.8438 6.03125 17.8438 3.21875 17.4688 1.90625ZM7.5625 8.5625V3.5L12 6.03125L7.5625 8.5625Z" fill="#353132" fill-opacity="0.6"/>
</svg>
